openframe-frontend-core/src/components/icons-v2/brand-logos/azure-ad-logo.svg

<svg width="24" height="24" viewBox="0 0 24 24" fill="none" xmlns="http://www.w3.org/2000/svg">
<path d="M11.9117 2C11.9329 2 11.9541 2.0265 11.9859 2.0742C12.0124 2.11661 14.2438 4.79328 16.947 8.02119C19.6502 11.2491 21.8551 13.9046 21.8445 13.9205C21.8392 13.9364 19.6873 15.7014 17.0636 17.8374C14.44 19.9735 12.2085 21.7915 12.1078 21.8763C11.9329 22.0194 11.9223 22.0247 11.8587 21.9611C11.8216 21.924 9.58483 20.0954 6.88696 17.8957C4.18908 15.6961 1.98944 13.8834 2.00004 13.8569C2.01064 13.8304 4.22618 11.1855 6.93466 7.97349C9.64314 4.76148 11.8587 2.10601 11.8693 2.0636C11.8799 2.0212 11.8958 2 11.9117 2Z" fill="#00BEF2"/>
<path d="M11.5464 18.818C11.2389 18.7067 10.8679 18.3887 10.7142 18.0919C10.5234 17.7261 10.5393 17.1537 10.7513 16.6979C10.9156 16.3586 10.9156 16.348 10.8096 16.2685C10.7513 16.2261 10.0464 15.8339 9.25132 15.4046C8.45626 14.9752 7.76192 14.5989 7.71422 14.5724C7.65061 14.5353 7.5446 14.5724 7.35379 14.6943C6.73365 15.0866 6.08701 15.0442 5.57818 14.5724C5.21245 14.2332 5.10645 13.9947 5.10645 13.5071C5.10645 13.0353 5.20185 12.7915 5.50397 12.4894C5.9121 12.0813 6.45803 11.9434 6.98277 12.1184C7.26899 12.2138 7.27429 12.2138 7.4545 12.076C7.66651 11.9169 9.36792 10.3639 10.1895 9.58479L10.7566 9.04416L10.587 8.68903C10.2425 7.97349 10.4174 7.17844 11.0216 6.7014C11.3503 6.44169 11.5941 6.36218 12.0658 6.36218C13.1683 6.36218 13.9368 7.51766 13.5234 8.55123C13.4121 8.83744 13.4121 8.84275 13.5181 9.01766C13.6082 9.17137 15.14 11.0212 15.951 11.9646C16.0941 12.129 16.2531 12.2615 16.3061 12.2615C16.3591 12.2615 16.5393 12.2085 16.7089 12.1449C17.4987 11.8321 18.3308 12.182 18.6594 12.9664C18.8714 13.4699 18.6859 14.1484 18.2354 14.5565C17.9174 14.8427 17.6842 14.9328 17.2601 14.9328C16.9633 14.9328 16.852 14.901 16.5393 14.7314C16.3061 14.6042 16.1259 14.5406 16.0517 14.5618C15.9245 14.5936 13.9686 15.9346 13.534 16.2844C13.269 16.5017 13.2478 16.5813 13.3856 16.9046C13.5181 17.2226 13.5022 17.7208 13.3538 18.0335C13.1895 18.3781 12.7813 18.7226 12.4262 18.8286C12.0658 18.9293 11.8485 18.9293 11.5464 18.818ZM11.6365 12.977V9.95582L11.4669 9.7226C11.3715 9.59539 11.2813 9.48939 11.2654 9.48939C11.1965 9.48939 7.77252 12.6007 7.77252 12.6643C7.77252 12.6802 7.82552 12.8392 7.88913 13.0088C7.95273 13.1837 8.00044 13.4328 7.99513 13.576C7.98983 13.7191 7.98983 13.8781 7.98983 13.9311C7.99513 14.053 9.14001 14.7844 10.8573 15.7756C11.3291 16.0512 11.4934 16.1201 11.5517 16.0724C11.6206 16.0141 11.6365 15.4258 11.6365 12.977ZM13.0888 15.6484C15.3573 14.2226 15.7813 13.9364 15.8078 13.8304C15.8237 13.7668 15.8449 13.5177 15.8502 13.2685L15.8662 12.8233L14.7107 11.4505C13.4704 9.98232 13.0146 9.48409 12.9086 9.48409C12.8715 9.48409 12.6859 9.59009 12.4951 9.7173L12.1453 9.95052L12.1612 12.9664C12.1771 15.6696 12.1983 16.1254 12.299 16.1254C12.3096 16.1307 12.67 15.9134 13.0888 15.6484Z" fill="white"/>
</svg>

<svg xmlns="http://www.w3.org/2000/svg" width="24" height="24" fill="none" viewBox="0 0 24 24">
  <path fill="#00BEF2" d="M11.912 2c.02 0 .042.026.074.074.026.043 2.258 2.72 4.961 5.947 2.703 3.228 4.908 5.884 4.898 5.9-.006.015-2.158 1.78-4.781 3.916a3113.072 3113.072 0 0 0-4.956 4.04c-.175.142-.186.148-.25.084-.036-.037-2.273-1.866-4.971-4.065-2.698-2.2-4.898-4.013-4.887-4.04.01-.026 2.226-2.67 4.935-5.883 2.708-3.212 4.924-5.867 4.934-5.91.01-.042.027-.063.043-.063Z"/>
  <path fill="#fff" d="M11.546 18.818c-.307-.111-.678-.43-.832-.726-.19-.366-.175-.938.037-1.394.165-.34.165-.35.059-.43a49.227 49.227 0 0 0-1.559-.863 581.4 581.4 0 0 1-1.537-.833c-.063-.037-.17 0-.36.122-.62.393-1.267.35-1.776-.122-.366-.339-.472-.577-.472-1.065 0-.472.096-.716.398-1.018.408-.408.954-.546 1.479-.37.286.095.291.095.472-.043.212-.16 1.913-1.712 2.735-2.491l.567-.54-.17-.356c-.345-.716-.17-1.51.435-1.988.328-.26.572-.339 1.044-.339 1.102 0 1.87 1.156 1.457 2.19-.11.285-.11.29-.005.466.09.153 1.622 2.003 2.433 2.947.143.164.302.296.355.296.053 0 .233-.052.403-.116a1.478 1.478 0 0 1 1.95.821c.212.504.027 1.182-.424 1.59-.318.287-.55.377-.975.377-.297 0-.408-.032-.72-.202-.234-.127-.414-.19-.488-.17-.127.033-2.083 1.374-2.518 1.723-.265.218-.286.297-.148.62.132.319.116.817-.032 1.13-.164.344-.573.689-.928.795-.36.1-.578.1-.88-.011Zm.09-5.841V9.956l-.17-.233c-.095-.128-.185-.234-.2-.234-.07 0-3.493 3.112-3.493 3.175 0 .016.053.175.116.345.064.175.111.424.106.567-.005.143-.005.302-.005.355.005.122 1.15.853 2.867 1.845.472.275.636.344.695.296.069-.058.085-.646.085-3.095Zm1.453 2.671c2.268-1.425 2.692-1.712 2.719-1.818a4.06 4.06 0 0 0 .042-.562l.016-.445-1.155-1.373c-1.24-1.468-1.696-1.966-1.802-1.966-.038 0-.223.106-.414.233l-.35.234.016 3.015c.016 2.704.037 3.16.138 3.16.01.005.371-.213.79-.478Z"/>
</svg>
